X: 10472
M: 6/8
L: 1/8
K: D
|:\
ded dAF | GDA FDE | FGA Bcd | efd c2A |\
ded dAF | GDA FDE | FGA Bcd | ecA d3 :|
|:\
efd ecA | fdB ecA | e2f gfe | dcB A2F |\


